svg/u1f346.svg

<svg viewBox="0 0 128 128" xmlns="http://www.w3.org/2000/svg">
  <path d="M20.03,25.81L9.22,32.96c0,0-1.55,3.04,0.55,13.33s11.58,30.65,30.67,49.97 c16.47,16.66,35.7,24.78,52.61,25.65s25.04-10.06,25.04-10.06L20.03,25.81z" fill="#8E2F97"/>
  <path d="M29.28,20.58l-9.25,15.96c0,0,5.82,21.19,15.63,34.38c10.64,14.3,22.81,26.72,41.88,36.41 c16.27,8.27,31.49,11.41,31.49,11.41s9.93-3.97,13.89-14.98c3.77-10.48-1.22-21.97-8.37-27.55s-21.46-9.03-34.5-15.96 c-13.83-7.35-24.08-15.94-33.14-25.7c-5.67-6.1-6.98-8.7-7.17-9.8c-0.09-0.52-0.42-0.96-0.92-1.12L29.28,20.58z" fill="#A057A1"/>
  <path d="M22.71,38.01l-0.81,5.74c0,0,1.47,1.95,3.23,1.8c1.76-0.15,4.47-4.68,5.15-7.77 c1-4.52,0.46-7.04,0.46-7.04s3.52,1.84,8.8,1.07c5.28-0.77,7.96-3.75,8.65-5.28c0.69-1.53,0.54-3.22-0.23-3.6 c-0.77-0.38-4.52,1.3-4.52,1.3l-11.94-0.46l-11.33,3.29L22.71,38.01z" fill="#BDCF46"/>
  <path d="M3,46.41c0,0-1.59,0.6-1.11,2.36c0.34,1.22,3.26,3.15,7.15,1.2s6.37-7.12,7.34-9.57 c1.6-4.06,2.3-6.85,2.3-6.85l-5.4-3.2L8.48,41.9C8.48,41.9,6.32,45.55,3,46.41z" fill="#BDCF46"/>
  <path d="M11.01,20.2c0,0-3.24-5.33-3.6-8.51c-0.3-2.7,0.96-4.37,1.61-5.2c1-1.28,3.09-2.11,4.46-1.38 c1.7,0.9,1.68,2.62,2.79,4.85s3.02,5.59,3.02,5.59s3.84-1.22,9.41,0.71s8.03,4.44,11.45,5.41c3.42,0.97,7.6-0.31,7.82,1.27 S42.69,27.78,37.93,28s-7.73-2.45-9.37-1.41c-1.64,1.04-0.36,7.38-1.83,11.91c-1.17,3.6-4.06,5.41-4.81,5.31 c-0.13-0.02-3.48-5.17-4.14-6.58c-0.67-1.41-1.93-4.98-3.79-2.23c-1.86,2.75-1.47,6.91-5.13,10.11c-2.71,2.37-5.38,2.16-5.98,1.51 c-0.19-0.21,2.38-2,2.38-4.16c0-2.16-0.62-10.37,0.5-14.39C7.24,22.72,11.01,20.2,11.01,20.2z" fill="#6F9823"/>
</svg>

<svg viewBox="0 0 128 128" xmlns="http://www.w3.org/2000/svg">
  <defs/>
  <path d="M20.03,25.81 L9.22,32.96 C9.22,32.96 7.67,36 9.77,46.29 C11.87,56.58 21.35,76.94 40.44,96.26 C56.91,112.92 76.14,121.04 93.05,121.91 C109.96,122.78 118.09,111.85 118.09,111.85 L20.03,25.81 Z" fill="#8E2F97"/>
  <path d="M29.28,20.58 L20.03,36.54 C20.03,36.54 25.85,57.73 35.66,70.92 C46.3,85.22 58.47,97.64 77.54,107.33 C93.81,115.6 109.03,118.74 109.03,118.74 C109.03,118.74 118.96,114.77 122.92,103.76 C126.69,93.28 121.7,81.79 114.55,76.21 C107.4,70.63 93.09,67.18 80.05,60.25 C66.22,52.9 55.97,44.31 46.91,34.55 C41.24,28.45 39.93,25.85 39.74,24.75 C39.65,24.23 39.32,23.79 38.82,23.63 L29.28,20.58 Z" fill="#A057A1"/>
  <path d="M22.71,38.01 L21.9,43.75 C21.9,43.75 23.37,45.7 25.13,45.55 C26.89,45.4 29.6,40.87 30.28,37.78 C31.28,33.26 30.74,30.74 30.74,30.74 C30.74,30.74 34.26,32.58 39.54,31.81 C44.82,31.04 47.5,28.06 48.19,26.53 C48.88,25 48.73,23.31 47.96,22.93 C47.19,22.55 43.44,24.23 43.44,24.23 L31.5,23.77 L20.17,27.06 L22.71,38.01 Z" fill="#BDCF46"/>
  <path d="M3,46.41 C3,46.41 1.41,47.01 1.89,48.77 C2.23,49.99 5.15,51.92 9.04,49.97 C12.93,48.02 15.41,42.85 16.38,40.4 C17.98,36.34 18.68,33.55 18.68,33.55 L13.28,30.35 L8.48,41.9 C8.48,41.9 6.32,45.55 3,46.41 Z" fill="#BDCF46"/>
  <path d="M11.01,20.2 C11.01,20.2 7.77,14.87 7.41,11.69 C7.11,8.99 8.37,7.32 9.02,6.49 C10.02,5.21 12.11,4.38 13.48,5.11 C15.18,6.01 15.16,7.73 16.27,9.96 C17.38,12.19 19.29,15.55 19.29,15.55 C19.29,15.55 23.13,14.33 28.7,16.26 C34.27,18.19 36.73,20.7 40.15,21.67 C43.57,22.64 47.75,21.36 47.97,22.94 C48.19,24.52 42.69,27.78 37.93,28 C33.17,28.22 30.2,25.55 28.56,26.59 C26.92,27.63 28.2,33.97 26.73,38.5 C25.56,42.1 22.67,43.91 21.92,43.81 C21.79,43.79 18.44,38.64 17.78,37.23 C17.11,35.82 15.85,32.25 13.99,35 C12.13,37.75 12.52,41.91 8.86,45.11 C6.15,47.48 3.48,47.27 2.88,46.62 C2.69,46.41 5.26,44.62 5.26,42.46 C5.26,40.3 4.64,32.09 5.76,28.07 C7.24,22.72 11.01,20.2 11.01,20.2 Z" fill="#6F9823"/>
</svg>
